docs/assets/img/sprite-tips.svg

<svg xmlns="http://www.w3.org/2000/svg" xmlns:xlink="http://www.w3.org/1999/xlink">
    
    <symbol id="wallet" width="48" height="48" viewBox="0 0 48 48">
        <path d="M42.6668 19.9997H41.3335V11.9997C41.3335 11.646 41.193 11.3069 40.943 11.0569C40.6929 10.8068 40.3538 10.6663 40.0002 10.6663H8.00018C7.68446 10.6715 7.37716 10.5644 7.133 10.3642C6.88883 10.164 6.72364 9.88362 6.66685 9.57301V9.09301C6.72364 8.7824 6.88883 8.50202 7.133 8.30181C7.37716 8.10159 7.68446 7.99452 8.00018 7.99967H39.4402C39.7938 7.99967 40.1329 7.8592 40.383 7.60915C40.633 7.3591 40.7735 7.01996 40.7735 6.66634C40.7735 6.31272 40.633 5.97358 40.383 5.72353C40.1329 5.47348 39.7938 5.33301 39.4402 5.33301H8.00018C6.93932 5.33301 5.9219 5.75444 5.17176 6.50458C4.42161 7.25473 4.00018 8.27214 4.00018 9.33301C3.99082 9.49287 3.99082 9.65314 4.00018 9.81301V37.2397C4.00542 37.9576 4.152 38.6674 4.43158 39.3286C4.71115 39.9899 5.11823 40.5896 5.62957 41.0935C6.14092 41.5974 6.74651 41.9957 7.41178 42.2655C8.07704 42.5354 8.78895 42.6716 9.50685 42.6663H40.0002C40.3538 42.6663 40.6929 42.5259 40.943 42.2758C41.193 42.0258 41.3335 41.6866 41.3335 41.333V33.333H42.6668C43.0205 33.333 43.3596 33.1925 43.6097 32.9425C43.8597 32.6924 44.0002 32.3533 44.0002 31.9997V21.333C44.0002 20.9794 43.8597 20.6402 43.6097 20.3902C43.3596 20.1401 43.0205 19.9997 42.6668 19.9997ZM38.6668 39.9997H9.50685C8.76525 40.0068 8.05082 39.7209 7.51897 39.204C6.98712 38.6871 6.68087 37.9812 6.66685 37.2397V13.173C7.09965 13.2984 7.55 13.3525 8.00018 13.333H38.6668V19.9997H29.3335C27.5654 19.9997 25.8697 20.702 24.6195 21.9523C23.3692 23.2025 22.6668 24.8982 22.6668 26.6663C22.6668 28.4344 23.3692 30.1301 24.6195 31.3804C25.8697 32.6306 27.5654 33.333 29.3335 33.333H38.6668V39.9997ZM41.3335 30.6663H29.3335C28.2726 30.6663 27.2552 30.2449 26.5051 29.4948C25.7549 28.7446 25.3335 27.7272 25.3335 26.6663C25.3335 25.6055 25.7549 24.5881 26.5051 23.8379C27.2552 23.0878 28.2726 22.6663 29.3335 22.6663H41.3335V30.6663Z" fill="#908294"/>
        <path d="M30.6799 28.667C31.7845 28.667 32.6799 27.7716 32.6799 26.667C32.6799 25.5624 31.7845 24.667 30.6799 24.667C29.5754 24.667 28.6799 25.5624 28.6799 26.667C28.6799 27.7716 29.5754 28.667 30.6799 28.667Z" fill="#908294"/>
    </symbol>

    <symbol id="collection" width="48" height="48" viewBox="0 0 48 48">
        <path d="M7.5 10.5C7.10218 10.5 6.72064 10.342 6.43934 10.0607C6.15804 9.77936 6 9.39782 6 9C6 8.60218 6.15804 8.22064 6.43934 7.93934C6.72064 7.65804 7.10218 7.5 7.5 7.5H40.5C40.8978 7.5 41.2794 7.65804 41.5607 7.93934C41.842 8.22064 42 8.60218 42 9C42 9.39782 41.842 9.77936 41.5607 10.0607C41.2794 10.342 40.8978 10.5 40.5 10.5H7.5ZM13.5 4.5C13.1022 4.5 12.7206 4.34196 12.4393 4.06066C12.158 3.77936 12 3.39782 12 3C12 2.60218 12.158 2.22064 12.4393 1.93934C12.7206 1.65804 13.1022 1.5 13.5 1.5H34.5C34.8978 1.5 35.2794 1.65804 35.5607 1.93934C35.842 2.22064 36 2.60218 36 3C36 3.39782 35.842 3.77936 35.5607 4.06066C35.2794 4.34196 34.8978 4.5 34.5 4.5H13.5ZM0 39C0 40.1935 0.474106 41.3381 1.31802 42.182C2.16193 43.0259 3.30653 43.5 4.5 43.5H43.5C44.6935 43.5 45.8381 43.0259 46.682 42.182C47.5259 41.3381 48 40.1935 48 39V18C48 16.8065 47.5259 15.6619 46.682 14.818C45.8381 13.9741 44.6935 13.5 43.5 13.5H4.5C3.30653 13.5 2.16193 13.9741 1.31802 14.818C0.474106 15.6619 0 16.8065 0 18L0 39ZM4.5 40.5C4.10218 40.5 3.72064 40.342 3.43934 40.0607C3.15804 39.7794 3 39.3978 3 39V18C3 17.6022 3.15804 17.2206 3.43934 16.9393C3.72064 16.658 4.10218 16.5 4.5 16.5H43.5C43.8978 16.5 44.2794 16.658 44.5607 16.9393C44.842 17.2206 45 17.6022 45 18V39C45 39.3978 44.842 39.7794 44.5607 40.0607C44.2794 40.342 43.8978 40.5 43.5 40.5H4.5Z" fill="#908294"/>
    </symbol>

    <symbol id="fluent-collection" width="48" height="48" viewBox="0 0 48 48">
        <path d="M22.1318 16.0078L22.4998 15.9978H37.4998C39.1598 15.9977 40.7569 16.6326 41.9637 17.7725C43.1704 18.9123 43.8954 20.4706 43.9898 22.1278L43.9998 22.4978V37.4978C44 39.1581 43.3647 40.7555 42.2245 41.9623C41.0843 43.1691 39.5255 43.8938 37.8678 43.9878L37.4998 43.9978H22.4998C20.8396 43.998 19.2422 43.3627 18.0354 42.2225C16.8286 41.0823 16.1038 39.5235 16.0098 37.8658L15.9998 37.4998V22.4998C15.9997 20.8396 16.635 19.2422 17.7752 18.0354C18.9154 16.8286 20.4742 16.1038 22.1318 16.0098V16.0078ZM37.4998 18.9978H22.4998C21.6215 18.9979 20.7752 19.3282 20.1291 19.9232C19.4829 20.5182 19.0841 21.3344 19.0118 22.2098L18.9998 22.4978V37.4978C18.9999 38.3765 19.3305 39.2231 19.9259 39.8693C20.5214 40.5155 21.3381 40.914 22.2138 40.9858L22.4998 40.9978H37.4998C38.3785 40.9978 39.2251 40.6672 39.8713 40.0718C40.5175 39.4763 40.916 38.6596 40.9878 37.7838L40.9998 37.4978V22.4978C40.9998 21.5696 40.6311 20.6793 39.9747 20.023C39.3183 19.3666 38.4281 18.9978 37.4998 18.9978ZM29.9998 21.9998C30.3977 21.9998 30.7792 22.1579 31.0605 22.4392C31.3418 22.7205 31.4998 23.102 31.4998 23.4998V28.4958H36.4998C36.8977 28.4958 37.2792 28.6539 37.5605 28.9352C37.8418 29.2165 37.9998 29.598 37.9998 29.9958C37.9998 30.3937 37.8418 30.7752 37.5605 31.0565C37.2792 31.3378 36.8977 31.4958 36.4998 31.4958H31.4998V36.4998C31.4998 36.8977 31.3418 37.2792 31.0605 37.5605C30.7792 37.8418 30.3977 37.9998 29.9998 37.9998C29.602 37.9998 29.2205 37.8418 28.9392 37.5605C28.6579 37.2792 28.4998 36.8977 28.4998 36.4998V31.4958H23.4998C23.102 31.4958 22.7205 31.3378 22.4392 31.0565C22.1579 30.7752 21.9998 30.3937 21.9998 29.9958C21.9998 29.598 22.1579 29.2165 22.4392 28.9352C22.7205 28.6539 23.102 28.4958 23.4998 28.4958H28.4998V23.4998C28.4998 23.102 28.6579 22.7205 28.9392 22.4392C29.2205 22.1579 29.602 21.9998 29.9998 21.9998ZM31.1638 8.46584L31.2678 8.81984L32.6538 13.9958H29.5478L28.3718 9.59584C28.253 9.15163 28.0478 8.73518 27.768 8.3703C27.4881 8.00542 27.1391 7.69926 26.7409 7.46932C26.3427 7.23938 25.9031 7.09016 25.4471 7.0302C24.9912 6.97023 24.528 7.00069 24.0838 7.11984L9.59584 11.0038C8.7501 11.2306 8.02009 11.7662 7.54986 12.5049C7.07964 13.2435 6.90337 14.1316 7.05584 14.9938L7.11984 15.2898L11.0038 29.7778C11.186 30.4586 11.5695 31.0686 12.104 31.5279C12.6386 31.9871 13.2994 32.2743 13.9998 32.3518V35.3638C12.6995 35.2863 11.4524 34.8202 10.42 34.0257C9.3877 33.2312 8.61772 32.145 8.20984 30.9078L8.10584 30.5558L4.22384 16.0658C3.79385 14.4626 3.99351 12.7556 4.7819 11.2948C5.57028 9.8341 6.88764 8.73032 8.46384 8.20984L8.81984 8.10584L23.3078 4.22384C24.9111 3.79385 26.6181 3.99351 28.0788 4.7819C29.5396 5.57028 30.6434 6.88764 31.1638 8.46384V8.46584Z" fill="#908294"/>
    </symbol>

    <symbol id="sales-report" width="48" height="48" viewBox="0 0 48 48">
        <path d="M41 14L24 4L7 14V34L24 44L41 34V14Z" stroke="#908294" stroke-width="3" stroke-linejoin="round"/>
        <path d="M23.9999 22V30" stroke="#908294" stroke-width="3" stroke-linecap="round" stroke-linejoin="round"/>
        <path d="M32 18V30" stroke="#908294" stroke-width="3" stroke-linecap="round" stroke-linejoin="round"/>
        <path d="M16 26V30" stroke="#908294" stroke-width="3" stroke-linecap="round" stroke-linejoin="round"/>
    </symbol>
</svg>

<svg xmlns="http://www.w3.org/2000/svg"><symbol id="wallet" viewBox="0 0 48 48"><path d="M42.667 20h-1.334v-8A1.333 1.333 0 0040 10.666H8a1.333 1.333 0 01-1.333-1.093v-.48A1.333 1.333 0 018 8h31.44a1.333 1.333 0 000-2.667H8a4 4 0 00-4 4c-.01.16-.01.32 0 .48V37.24a5.466 5.466 0 005.507 5.426H40a1.333 1.333 0 001.334-1.333v-8h1.333A1.334 1.334 0 0044 32V21.333A1.333 1.333 0 0042.667 20zm-4 20H9.507a2.814 2.814 0 01-2.84-2.76V13.173c.433.125.883.18 1.333.16h30.667V20h-9.334a6.666 6.666 0 100 13.333h9.334V40zm2.666-9.334h-12a4 4 0 110-8h12v8z" fill="#908294"/><path d="M30.68 28.667a2 2 0 100-4 2 2 0 000 4z" fill="#908294"/></symbol><symbol id="collection" viewBox="0 0 48 48"><path d="M7.5 10.5a1.5 1.5 0 110-3h33a1.5 1.5 0 010 3h-33zm6-6a1.5 1.5 0 010-3h21a1.5 1.5 0 010 3h-21zM0 39a4.5 4.5 0 004.5 4.5h39A4.5 4.5 0 0048 39V18a4.5 4.5 0 00-4.5-4.5h-39A4.5 4.5 0 000 18v21zm4.5 1.5A1.5 1.5 0 013 39V18a1.5 1.5 0 011.5-1.5h39A1.5 1.5 0 0145 18v21a1.5 1.5 0 01-1.5 1.5h-39z" fill="#908294"/></symbol><symbol id="fluent-collection" viewBox="0 0 48 48"><path d="M22.132 16.008l.368-.01h15a6.5 6.5 0 016.49 6.13l.01.37v15a6.5 6.5 0 01-6.132 6.49l-.368.01h-15a6.5 6.5 0 01-6.49-6.132L16 37.5v-15a6.5 6.5 0 016.132-6.49v-.002zm15.368 2.99h-15a3.5 3.5 0 00-3.488 3.212l-.012.288v15a3.5 3.5 0 003.214 3.488l.286.012h15a3.5 3.5 0 003.488-3.214l.012-.286v-15a3.5 3.5 0 00-3.5-3.5zM30 22a1.5 1.5 0 011.5 1.5v4.996h5a1.5 1.5 0 010 3h-5V36.5a1.5 1.5 0 11-3 0v-5.004h-5a1.5 1.5 0 110-3h5V23.5A1.5 1.5 0 0130 22zm1.164-13.534l.104.354 1.386 5.176h-3.106l-1.176-4.4a3.5 3.5 0 00-4.288-2.476L9.596 11.004a3.5 3.5 0 00-2.54 3.99l.064.296 3.884 14.488A3.5 3.5 0 0014 32.352v3.012a6.504 6.504 0 01-5.79-4.456l-.104-.352-3.882-14.49a6.5 6.5 0 014.24-7.856l.356-.104 14.488-3.882a6.5 6.5 0 017.856 4.24v.002z" fill="#908294"/></symbol><symbol id="sales-report" viewBox="0 0 48 48"><path d="M41 14L24 4 7 14v20l17 10 17-10V14z" stroke="#908294" stroke-width="3" stroke-linejoin="round"/><path d="M24 22v8m8-12v12m-16-4v4" stroke="#908294" stroke-width="3" stroke-linecap="round" stroke-linejoin="round"/></symbol></svg>
